X:1
T:Stars All Bright, 11.11.11.11
T:Mr. Moon & W. R. Holt, 1894
T:Stars All Bright, 11.11.11.11
T:Public Domain
C:Mr. Moon & W. R. Holt, 1894
Z:Public Domain
%%score ( 1 2 ) ( 3 4 )
L:1/8
M:6/8
K:A
V:1 treble 
V:2 treble 
V:3 bass 
V:4 bass 
V:1
 [EA]2 [EA] (AG)[=DF] | E3 [A,C]3 | [CE]2 [CE] (AB)[=Dc] | [EB]6 | [EB]2 [EB] [EB]2 [Ec] | %5
 [Ed]3 [EB]3 | [EB]2 [EA] (GA)[^DF] | E6 | [Ae]2 [Ac] [Ae]2 [Ac] | [Ae]3 [Ac]3 | %10
 ([Ac]B)[Ac] (ed)[Ac] | [GB]6 | [=Gc]2 [Gc] (dc)[=FB] | [EA]3 [=CF]3 | [CE]2 [CE] (EF)[DG] | %15
 [CA]6 |] %16
V:2
 x3 ^D2 x | E3 x3 | x3 ^D2 x | x6 | x6 | x6 | x3 E2 x | E6 | x6 | x6 | x3 A2 x | x6 | x3 =F2 x | %13
 x6 | x3 D2 x | x6 |] %16
V:3
 [A,,C]2 [A,,C] [A,,=C]2 [A,,C] | [A,,C]3 [A,,A,]3 | [A,,A,]2 [A,,A,] (F,G,)[B,,A,] | [E,G,]6 | %4
 [E,G,]2 [E,G,] [E,G,]2 [E,A,] | [E,B,]3 [E,G,]3 | [G,,D]2 [A,,C] ([B,,B,][A,,C])[B,,A,] | %7
 A,3 G,3 | [CE]2 [A,E] [CE]2 [A,E] | [CE]3 [A,E]3 | (A,G,)[A,E] (CB,)[A,E] | [E,E]6 | %12
 [A,,E]2 [A,,E] [A,,D]2 [A,,D] | [A,,C]3 [^D,A,]3 | [E,A,]2 [E,A,] (G,A,)[E,B,] | [A,,A,]6 |] %16
V:4
 x6 | x6 | x3 B,,2 x | x6 | x6 | x6 | x6 | E,6 | x6 | x6 | E2 E2 x2 | x6 | x6 | x6 | x3 E,2 x | %15
 x6 |] %16

